exports/deaths-and-new-cases-of-hiv_v2_850x600.svg

<svg xmlns="http://www.w3.org/2000/svg" version="1.1" style="background-color:#fff;-webkit-font-smoothing:antialiased" width="850" height="600" font-family="'Helvetica Neue',Helvetica,Arial,sans-serif" font-size="18" text-rendering="optimizeLegibility"><g class="ChartTab"><g class="HeaderView"><g opacity=".8" transform="matrix(.27 0 0 .27 778 15)"><a xmlns:xlink="http://www.w3.org/1999/xlink" xlink:href="https://ourworldindata.org" target="_blank"><g><path fill="#1B2543" d="M0 0h211.2v130.1H0z"/><path fill="#E63912" d="M0 112.2h211.2v17.9H0z"/><g><path fill="none" d="M1.2 12.3h210.2v99.2H1.2z"/><path fill="#FFF" d="M37.8 32.2c0 12.7-7.7 19.4-17.1 19.4-9.7 0-16.6-7.5-16.6-18.7 0-11.7 7.3-19.3 17.1-19.3 10.1.1 16.6 7.7 16.6 18.6zm-28.6.6c0 7.9 4.3 14.9 11.8 14.9 7.5 0 11.8-6.9 11.8-15.3 0-7.3-3.8-14.9-11.8-14.9-7.9 0-11.8 7.3-11.8 15.3zM62.7 43.8c0 2.7.1 5.1.2 7.2h-4.3l-.3-4.3h-.1c-1.3 2.1-4 4.9-8.8 4.9-4.2 0-9.1-2.3-9.1-11.6V24.6h4.8v14.6c0 5 1.5 8.4 5.9 8.4 3.2 0 5.5-2.2 6.3-4.4.3-.7.4-1.6.4-2.5V24.6h4.8v19.2zM67.3 32.8c0-3.1-.1-5.8-.2-8.2h4.2l.2 5.2h.2c1.2-3.5 4.1-5.8 7.3-5.8.5 0 .9.1 1.4.2v4.5c-.5-.1-1-.2-1.6-.2-3.4 0-5.8 2.6-6.5 6.2-.1.7-.2 1.4-.2 2.2V51h-4.8V32.8zM95.4 51L86 14.2h5l4.4 18.6c1.1 4.6 2.1 9.2 2.7 12.7h.1c.6-3.7 1.8-8 3-12.8l4.9-18.5h5l4.5 18.7c1 4.4 2 8.7 2.6 12.6h.1c.8-4 1.8-8.1 3-12.7l4.9-18.5h4.9L120.6 51h-5L111 31.9c-1.1-4.7-1.9-8.3-2.4-12h-.1c-.7 3.7-1.5 7.3-2.8 12L100.4 51h-5zM154.9 37.6c0 9.8-6.8 14-13.2 14-7.2 0-12.7-5.2-12.7-13.6 0-8.8 5.8-14 13.1-14 7.7 0 12.8 5.5 12.8 13.6zm-21 .3c0 5.8 3.3 10.1 8 10.1 4.6 0 8-4.3 8-10.3 0-4.5-2.2-10.1-7.9-10.1s-8.1 5.2-8.1 10.3zM158.2 32.8c0-3.1-.1-5.8-.2-8.2h4.2l.2 5.2h.2c1.2-3.5 4.1-5.8 7.3-5.8.5 0 .9.1 1.4.2v4.5c-.5-.1-1-.2-1.6-.2-3.4 0-5.8 2.6-6.5 6.2-.1.7-.2 1.4-.2 2.2V51h-4.8V32.8zM173.5 12.3h4.8V51h-4.8V12.3zM206.5 12.3v31.9c0 2.3.1 5 .2 6.8h-4.3l-.2-4.6h-.2c-1.5 2.9-4.7 5.2-9 5.2-6.4 0-11.3-5.4-11.3-13.4-.1-8.8 5.4-14.2 11.9-14.2 4 0 6.8 1.9 8 4h.1V12.3h4.8zm-4.8 23.1c0-.6-.1-1.4-.2-2a7 7 0 00-6.9-5.6c-5 0-7.9 4.4-7.9 10.2 0 5.3 2.6 9.8 7.8 9.8 3.2 0 6.2-2.1 7.1-5.7.2-.7.2-1.3.2-2.1v-4.6zM42.8 64c.1 1.6-1.1 2.9-3.1 2.9-1.7 0-2.9-1.3-2.9-2.9 0-1.7 1.3-3 3-3 1.9 0 3 1.3 3 3zm-5.4 33.8V71.4h4.8v26.4h-4.8zM47.5 78.6c0-2.7-.1-5-.2-7.1h4.3l.3 4.4h.1c1.3-2.5 4.4-5 8.8-5 3.7 0 9.4 2.2 9.4 11.2v15.8h-4.8V82.6c0-4.3-1.6-7.8-6.1-7.8-3.2 0-5.6 2.2-6.5 4.9-.2.6-.3 1.4-.3 2.2v15.9h-4.8V78.6zM84 61.6c2.9-.4 6.3-.8 10.1-.8 6.8 0 11.7 1.6 14.9 4.6 3.3 3 5.2 7.3 5.2 13.2 0 6-1.9 10.9-5.3 14.3-3.4 3.4-9.1 5.3-16.3 5.3-3.4 0-6.2-.2-8.6-.4V61.6zm4.8 32.5c1.2.2 3 .3 4.8.3 10.2 0 15.7-5.7 15.7-15.6.1-8.7-4.9-14.2-14.9-14.2-2.5 0-4.3.2-5.6.5v29zM132.1 97.8l-.4-3.3h-.2a9.79 9.79 0 01-8.1 3.9c-5.4 0-8.1-3.8-8.1-7.6 0-6.4 5.7-9.9 15.9-9.8v-.5c0-2.2-.6-6.1-6-6.1-2.5 0-5 .8-6.9 2l-1.1-3.2c2.2-1.4 5.4-2.3 8.7-2.3 8.1 0 10.1 5.5 10.1 10.8v9.9c0 2.3.1 4.5.4 6.3h-4.3zm-.7-13.4c-5.3-.1-11.2.8-11.2 5.9 0 3.1 2.1 4.6 4.5 4.6 3.4 0 5.6-2.2 6.4-4.4.2-.5.3-1 .3-1.5v-4.6zM146.6 63.9v7.6h6.9v3.7h-6.9v14.2c0 3.3.9 5.1 3.6 5.1 1.3 0 2.2-.2 2.8-.3l.2 3.6c-.9.4-2.4.7-4.3.7-2.2 0-4-.7-5.2-2-1.4-1.4-1.9-3.8-1.9-6.9V75.1h-4.1v-3.7h4.1v-6.3l4.8-1.2zM171.4 97.8l-.4-3.3h-.2a9.79 9.79 0 01-8.1 3.9c-5.4 0-8.1-3.8-8.1-7.6 0-6.4 5.7-9.9 15.9-9.8v-.5c0-2.2-.6-6.1-6-6.1-2.5 0-5 .8-6.9 2l-1.1-3.2c2.2-1.4 5.4-2.3 8.7-2.3 8.1 0 10.1 5.5 10.1 10.8v9.9c0 2.3.1 4.5.4 6.3h-4.3zm-.7-13.4c-5.3-.1-11.2.8-11.2 5.9 0 3.1 2.1 4.6 4.5 4.6 3.4 0 5.6-2.2 6.4-4.4.2-.5.3-1 .3-1.5v-4.6z"/></g></g></a></g><a href="https://ourworldindata.org/grapher/deaths-and-new-cases-of-hiv" target="_blank"><text font-size="27" x="15" y="36.6" fill="#555"><tspan x="15" y="36.6">Prevalence, new cases and deaths from HIV, World</tspan></text></a><text font-size="14.4" x="15" y="55.5" fill="#666"><tspan x="15" y="55.52">Total number of deaths from HIV/AIDS (not including deaths from tuberculosis), new cases of HIV infection per year,</tspan><tspan x="15" y="71.36">and total number of people living with HIV. The total number of people living with HIV is measured in tens (i.e. equal</tspan><tspan x="15" y="87.2">to 36 million in 2016).</tspan></text></g><g class="LineChart"><defs><clipPath id="a"><path d="M83.06 0h830v894.2h-830z"/></clipPath></defs><g class="AxisBoxView"><g class="HorizontalAxis" fill="#666" text-anchor="middle" font-size="16.2"><text x="93.1" y="556.5">1990</text><text x="182.8" y="556.5">1995</text><text x="272.5" y="556.5">2000</text><text x="362.2" y="556.5">2005</text><text x="451.9" y="556.5">2010</text><text x="559.6" y="556.5">2016</text></g><g class="VerticalAxis" fill="#666" dominant-baseline="middle" text-anchor="end" font-size="16.2"><text x="88.06" y="535.3">0</text><text x="88.06" y="476.7">500,000</text><text x="88.06" y="418.2">1 million</text><text x="88.06" y="359.6">1.5 million</text><text x="88.06" y="301.1">2 million</text><text x="88.06" y="242.5">2.5 million</text><text x="88.06" y="184">3 million</text><text x="88.06" y="125.4">3.5 million</text></g><g class="AxisGridLines"><path stroke="#ccc" d="M93.06 535.3h466.52"/><path stroke="#ddd" stroke-dasharray="3,2" d="M93.06 476.7h466.52M93.06 418.2h466.52M93.06 359.6h466.52M93.06 301.1h466.52M93.06 242.5h466.52M93.06 184h466.52M93.06 125.4h466.52"/></g><g class="AxisGridLines" stroke="#ddd" stroke-dasharray="3,2"><path d="M93.1 535.3V109.4M182.8 535.3V109.4M272.5 535.3V109.4M362.2 535.3V109.4M451.9 535.3V109.4M541.6 535.3V109.4"/></g></g><g clip-path="url(#a)"><g class="HeightedLegend clickable"><g class="legendMark"><path fill="#34983f" d="M569.58 108.15h10v2.5h-10z"/><text font-size="14.4" x="584.6" y="113.7" fill="#333"><tspan x="584.58" y="113.72">Number of people living with HIV (tens)</tspan></text></g><g class="legendMark"><path fill="#ca2628" d="M569.58 315.65h10v2.5h-10z"/><text font-size="14.4" x="584.6" y="321.2" fill="#333"><tspan x="584.58" y="321.22">New infections of HIV/AIDS</tspan></text></g><g class="legendMark"><path fill="#3360a9" d="M569.58 412.95h10v2.5h-10z"/><text font-size="14.4" x="584.6" y="418.5" fill="#333"><tspan x="584.58" y="418.52">Deaths from HIV/AIDS</tspan></text></g></g><g class="Lines"><g class="key-World_0"><path stroke="#3360a9" stroke-linecap="round" d="M93 501l18-10 18-11 18-13 18-15 18-15 18-14 18-13 18-16 18-17 18-16 17-14 18-13 18-11 18-8 18-3h18l18 5 18 7 18 10 18 10 18 12 18 11 18 13 18 11 18 12 18 11" fill="none" stroke-width="1.5"/><g fill="#3360a9"><circle cx="93" cy="501" r="2"/><circle cx="111" cy="491" r="2"/><circle cx="129" cy="480" r="2"/><circle cx="147" cy="467" r="2"/><circle cx="165" cy="452" r="2"/><circle cx="183" cy="437" r="2"/><circle cx="201" cy="423" r="2"/><circle cx="219" cy="410" r="2"/><circle cx="237" cy="394" r="2"/><circle cx="255" cy="377" r="2"/><circle cx="273" cy="361" r="2"/><circle cx="290" cy="347" r="2"/><circle cx="308" cy="334" r="2"/><circle cx="326" cy="323" r="2"/><circle cx="344" cy="315" r="2"/><circle cx="362" cy="312" r="2"/><circle cx="380" cy="312" r="2"/><circle cx="398" cy="317" r="2"/><circle cx="416" cy="324" r="2"/><circle cx="434" cy="334" r="2"/><circle cx="452" cy="344" r="2"/><circle cx="470" cy="356" r="2"/><circle cx="488" cy="367" r="2"/><circle cx="506" cy="380" r="2"/><circle cx="524" cy="391" r="2"/><circle cx="542" cy="403" r="2"/><circle cx="560" cy="414" r="2"/></g></g><g class="key-World_1"><path stroke="#ca2628" stroke-linecap="round" d="M93 307l18-6 18-13 18-23 18-35 18-55 18 9 18 3 18-1 18-5 18-12 17 26 18 21 18 16 18 13 18 8 18 5 18 4 18 2 18 1 18-2 18 14 18 11 18 10 18 7 18 7 18 5" fill="none" stroke-width="1.5"/><g fill="#ca2628"><circle cx="93" cy="307" r="2"/><circle cx="111" cy="301" r="2"/><circle cx="129" cy="288" r="2"/><circle cx="147" cy="265" r="2"/><circle cx="165" cy="230" r="2"/><circle cx="183" cy="175" r="2"/><circle cx="201" cy="184" r="2"/><circle cx="219" cy="187" r="2"/><circle cx="237" cy="186" r="2"/><circle cx="255" cy="181" r="2"/><circle cx="273" cy="169" r="2"/><circle cx="290" cy="195" r="2"/><circle cx="308" cy="216" r="2"/><circle cx="326" cy="232" r="2"/><circle cx="344" cy="245" r="2"/><circle cx="362" cy="253" r="2"/><circle cx="380" cy="258" r="2"/><circle cx="398" cy="262" r="2"/><circle cx="416" cy="264" r="2"/><circle cx="434" cy="265" r="2"/><circle cx="452" cy="263" r="2"/><circle cx="470" cy="277" r="2"/><circle cx="488" cy="288" r="2"/><circle cx="506" cy="298" r="2"/><circle cx="524" cy="305" r="2"/><circle cx="542" cy="312" r="2"/><circle cx="560" cy="317" r="2"/></g></g><g class="key-World_2"><path stroke="#34983f" stroke-linecap="round" d="M93 440l18-12 18-16 18-20 18-28 18-41 18-9 18-13 18-17 18-22 18-49 17-2 18-4 18-6 18-9 18-23 18 9 18 4h18l18-7 18-24 18 10 18 3 18-3 18-9 18-16 18-27" fill="none" stroke-width="1.5"/><g fill="#34983f"><circle cx="93" cy="440" r="2"/><circle cx="111" cy="428" r="2"/><circle cx="129" cy="412" r="2"/><circle cx="147" cy="392" r="2"/><circle cx="165" cy="364" r="2"/><circle cx="183" cy="323" r="2"/><circle cx="201" cy="314" r="2"/><circle cx="219" cy="301" r="2"/><circle cx="237" cy="284" r="2"/><circle cx="255" cy="262" r="2"/><circle cx="273" cy="213" r="2"/><circle cx="290" cy="211" r="2"/><circle cx="308" cy="207" r="2"/><circle cx="326" cy="201" r="2"/><circle cx="344" cy="192" r="2"/><circle cx="362" cy="169" r="2"/><circle cx="380" cy="178" r="2"/><circle cx="398" cy="182" r="2"/><circle cx="416" cy="182" r="2"/><circle cx="434" cy="175" r="2"/><circle cx="452" cy="151" r="2"/><circle cx="470" cy="161" r="2"/><circle cx="488" cy="164" r="2"/><circle cx="506" cy="161" r="2"/><circle cx="524" cy="152" r="2"/><circle cx="542" cy="136" r="2"/><circle cx="560" cy="109" r="2"/></g></g></g></g></g><g class="SourcesFooter" fill="#777"><g class="clickable" fill="#777"><text font-size="12.6" x="15" y="581.6"><tspan x="15" y="581.58">Source: IHME, Global Burden of Disease</tspan></text></g><text font-size="12.6" x="649" y="581.6"><tspan x="649.02" y="581.58"><a target="_blank" href="https://ourworldindata.org" fill="#777">OurWorldInData.org</a> • <a href="http://creativecommons.org/licenses/by-sa/4.0/deed.en_US" target="_blank" fill="#777">CC BY-SA</a></tspan></text></g></g></svg>

<svg xmlns="http://www.w3.org/2000/svg" version="1.1" style="font-family: 'Helvetica Neue', Helvetica, Arial, sans-serif; font-size: 18px; background-color: white; text-rendering: optimizeLegibility; -webkit-font-smoothing: antialiased;" width="850" height="600"><g class="ChartTab"><g class="HeaderView"><g opacity="0.8" transform="translate(778, 15) scale(0.27)"><a xmlns:xlink="http://www.w3.org/1999/xlink" xlink:href="https://ourworldindata.org" target="_blank"><g><rect x="0" y="0" fill="#1B2543" width="211.2" height="130.1"/><rect x="0" y="112.2" fill="#E63912" width="211.2" height="17.9"/><g><rect x="1.2" y="12.3" fill="none" width="210.2" height="99.2"/><path fill="#FFFFFF" d="M37.8,32.2c0,12.7-7.7,19.4-17.1,19.4c-9.7,0-16.6-7.5-16.6-18.7c0-11.7,7.3-19.3,17.1-19.3 C31.3,13.7,37.8,21.3,37.8,32.2z M9.2,32.8c0,7.9,4.3,14.9,11.8,14.9c7.5,0,11.8-6.9,11.8-15.3c0-7.3-3.8-14.9-11.8-14.9 C13.1,17.5,9.2,24.8,9.2,32.8z"/><path fill="#FFFFFF" d="M62.7,43.8c0,2.7,0.1,5.1,0.2,7.2h-4.3l-0.3-4.3h-0.1c-1.3,2.1-4,4.9-8.8,4.9c-4.2,0-9.1-2.3-9.1-11.6 V24.6h4.8v14.6c0,5,1.5,8.4,5.9,8.4c3.2,0,5.5-2.2,6.3-4.4c0.3-0.7,0.4-1.6,0.4-2.5V24.6h4.8V43.8z"/><path fill="#FFFFFF" d="M67.3,32.8c0-3.1-0.1-5.8-0.2-8.2h4.2l0.2,5.2h0.2c1.2-3.5,4.1-5.8,7.3-5.8c0.5,0,0.9,0.1,1.4,0.2v4.5 c-0.5-0.1-1-0.2-1.6-0.2c-3.4,0-5.8,2.6-6.5,6.2c-0.1,0.7-0.2,1.4-0.2,2.2V51h-4.8V32.8z"/><path fill="#FFFFFF" d="M95.4,51l-9.4-36.8h5l4.4,18.6c1.1,4.6,2.1,9.2,2.7,12.7h0.1c0.6-3.7,1.8-8,3-12.8l4.9-18.5h5l4.5,18.7 c1,4.4,2,8.7,2.6,12.6h0.1c0.8-4,1.8-8.1,3-12.7l4.9-18.5h4.9L120.6,51h-5L111,31.9c-1.1-4.7-1.9-8.3-2.4-12h-0.1 c-0.7,3.7-1.5,7.3-2.8,12L100.4,51H95.4z"/><path fill="#FFFFFF" d="M154.9,37.6c0,9.8-6.8,14-13.2,14c-7.2,0-12.7-5.2-12.7-13.6c0-8.8,5.8-14,13.1-14 C149.8,24,154.9,29.5,154.9,37.6z M133.9,37.9c0,5.8,3.3,10.1,8,10.1c4.6,0,8-4.3,8-10.3c0-4.5-2.2-10.1-7.9-10.1 C136.3,27.6,133.9,32.8,133.9,37.9z"/><path fill="#FFFFFF" d="M158.2,32.8c0-3.1-0.1-5.8-0.2-8.2h4.2l0.2,5.2h0.2c1.2-3.5,4.1-5.8,7.3-5.8c0.5,0,0.9,0.1,1.4,0.2v4.5 c-0.5-0.1-1-0.2-1.6-0.2c-3.4,0-5.8,2.6-6.5,6.2c-0.1,0.7-0.2,1.4-0.2,2.2V51h-4.8V32.8z"/><path fill="#FFFFFF" d="M173.5,12.3h4.8V51h-4.8V12.3z"/><path fill="#FFFFFF" d="M206.5,12.3v31.9c0,2.3,0.1,5,0.2,6.8h-4.3l-0.2-4.6H202c-1.5,2.9-4.7,5.2-9,5.2 c-6.4,0-11.3-5.4-11.3-13.4c-0.1-8.8,5.4-14.2,11.9-14.2c4,0,6.8,1.9,8,4h0.1V12.3H206.5z M201.7,35.4c0-0.6-0.1-1.4-0.2-2 c-0.7-3.1-3.3-5.6-6.9-5.6c-5,0-7.9,4.4-7.9,10.2c0,5.3,2.6,9.8,7.8,9.8c3.2,0,6.2-2.1,7.1-5.7c0.2-0.7,0.2-1.3,0.2-2.1V35.4z"/><path fill="#FFFFFF" d="M42.8,64c0.1,1.6-1.1,2.9-3.1,2.9c-1.7,0-2.9-1.3-2.9-2.9c0-1.7,1.3-3,3-3C41.7,61,42.8,62.3,42.8,64z M37.4,97.8V71.4h4.8v26.4H37.4z"/><path fill="#FFFFFF" d="M47.5,78.6c0-2.7-0.1-5-0.2-7.1h4.3l0.3,4.4h0.1c1.3-2.5,4.4-5,8.8-5c3.7,0,9.4,2.2,9.4,11.2v15.8h-4.8 V82.6c0-4.3-1.6-7.8-6.1-7.8c-3.2,0-5.6,2.2-6.5,4.9c-0.2,0.6-0.3,1.4-0.3,2.2v15.9h-4.8V78.6z"/><path fill="#FFFFFF" d="M84,61.6c2.9-0.4,6.3-0.8,10.1-0.8c6.8,0,11.7,1.6,14.9,4.6c3.3,3,5.2,7.3,5.2,13.2c0,6-1.9,10.9-5.3,14.3 c-3.4,3.4-9.1,5.3-16.3,5.3c-3.4,0-6.2-0.2-8.6-0.4V61.6z M88.8,94.1c1.2,0.2,3,0.3,4.8,0.3c10.2,0,15.7-5.7,15.7-15.6 c0.1-8.7-4.9-14.2-14.9-14.2c-2.5,0-4.3,0.2-5.6,0.5V94.1z"/><path fill="#FFFFFF" d="M132.1,97.8l-0.4-3.3h-0.2c-1.5,2.1-4.3,3.9-8.1,3.9c-5.4,0-8.1-3.8-8.1-7.6c0-6.4,5.7-9.9,15.9-9.8v-0.5 c0-2.2-0.6-6.1-6-6.1c-2.5,0-5,0.8-6.9,2l-1.1-3.2c2.2-1.4,5.4-2.3,8.7-2.3c8.1,0,10.1,5.5,10.1,10.8v9.9c0,2.3,0.1,4.5,0.4,6.3 H132.1z M131.4,84.4c-5.3-0.1-11.2,0.8-11.2,5.9c0,3.1,2.1,4.6,4.5,4.6c3.4,0,5.6-2.2,6.4-4.4c0.2-0.5,0.3-1,0.3-1.5V84.4z"/><path fill="#FFFFFF" d="M146.6,63.9v7.6h6.9v3.7h-6.9v14.2c0,3.3,0.9,5.1,3.6,5.1c1.3,0,2.2-0.2,2.8-0.3l0.2,3.6 c-0.9,0.4-2.4,0.7-4.3,0.7c-2.2,0-4-0.7-5.2-2c-1.4-1.4-1.9-3.8-1.9-6.9V75.1h-4.1v-3.7h4.1v-6.3L146.6,63.9z"/><path fill="#FFFFFF" d="M171.4,97.8l-0.4-3.3h-0.2c-1.5,2.1-4.3,3.9-8.1,3.9c-5.4,0-8.1-3.8-8.1-7.6c0-6.4,5.7-9.9,15.9-9.8v-0.5 c0-2.2-0.6-6.1-6-6.1c-2.5,0-5,0.8-6.9,2l-1.1-3.2c2.2-1.4,5.4-2.3,8.7-2.3c8.1,0,10.1,5.5,10.1,10.8v9.9c0,2.3,0.1,4.5,0.4,6.3 H171.4z M170.7,84.4c-5.3-0.1-11.2,0.8-11.2,5.9c0,3.1,2.1,4.6,4.5,4.6c3.4,0,5.6-2.2,6.4-4.4c0.2-0.5,0.3-1,0.3-1.5V84.4z"/></g></g></a></g><a href="https://ourworldindata.org/grapher/deaths-and-new-cases-of-hiv" target="_blank"><text font-size="27.00" x="15.0" y="36.6" fill="#555"><tspan x="15" y="36.6">Prevalence, new cases and deaths from HIV, World</tspan></text></a><text font-size="14.40" x="15.0" y="55.5" fill="#666"><tspan x="15" y="55.519999999999996">Total number of deaths from HIV/AIDS (not including deaths from tuberculosis), new cases of HIV infection per year,</tspan><tspan x="15" y="71.36">and total number of people living with HIV. The total number of people living with HIV is measured in tens (i.e. equal</tspan><tspan x="15" y="87.2">to 36 million in 2016).</tspan></text></g><g class="LineChart"><defs><clipPath id="boundsClip-1"><rect x="83.062" y="0" width="830" height="894.2"></rect></clipPath></defs><g class="AxisBoxView"><g class="HorizontalAxis"><text x="93.1" y="556.5" fill="#666" text-anchor="middle" font-size="16.2">1990</text><text x="182.8" y="556.5" fill="#666" text-anchor="middle" font-size="16.2">1995</text><text x="272.5" y="556.5" fill="#666" text-anchor="middle" font-size="16.2">2000</text><text x="362.2" y="556.5" fill="#666" text-anchor="middle" font-size="16.2">2005</text><text x="451.9" y="556.5" fill="#666" text-anchor="middle" font-size="16.2">2010</text><text x="559.6" y="556.5" fill="#666" text-anchor="middle" font-size="16.2">2016</text></g><g class="VerticalAxis"><text x="88.06" y="535.3" fill="#666" dominant-baseline="middle" text-anchor="end" font-size="16.2">0</text><text x="88.06" y="476.7" fill="#666" dominant-baseline="middle" text-anchor="end" font-size="16.2">500,000</text><text x="88.06" y="418.2" fill="#666" dominant-baseline="middle" text-anchor="end" font-size="16.2">1 million</text><text x="88.06" y="359.6" fill="#666" dominant-baseline="middle" text-anchor="end" font-size="16.2">1.5 million</text><text x="88.06" y="301.1" fill="#666" dominant-baseline="middle" text-anchor="end" font-size="16.2">2 million</text><text x="88.06" y="242.5" fill="#666" dominant-baseline="middle" text-anchor="end" font-size="16.2">2.5 million</text><text x="88.06" y="184" fill="#666" dominant-baseline="middle" text-anchor="end" font-size="16.2">3 million</text><text x="88.06" y="125.4" fill="#666" dominant-baseline="middle" text-anchor="end" font-size="16.2">3.5 million</text></g><g class="AxisGridLines"><line x1="93.06" y1="535.3" x2="559.58" y2="535.3" stroke="#ccc"></line><line x1="93.06" y1="476.7" x2="559.58" y2="476.7" stroke="#ddd" stroke-dasharray="3,2"></line><line x1="93.06" y1="418.2" x2="559.58" y2="418.2" stroke="#ddd" stroke-dasharray="3,2"></line><line x1="93.06" y1="359.6" x2="559.58" y2="359.6" stroke="#ddd" stroke-dasharray="3,2"></line><line x1="93.06" y1="301.1" x2="559.58" y2="301.1" stroke="#ddd" stroke-dasharray="3,2"></line><line x1="93.06" y1="242.5" x2="559.58" y2="242.5" stroke="#ddd" stroke-dasharray="3,2"></line><line x1="93.06" y1="184" x2="559.58" y2="184" stroke="#ddd" stroke-dasharray="3,2"></line><line x1="93.06" y1="125.4" x2="559.58" y2="125.4" stroke="#ddd" stroke-dasharray="3,2"></line></g><g class="AxisGridLines"><line x1="93.1" y1="535.30" x2="93.1" y2="109.40" stroke="#ddd" stroke-dasharray="3,2"></line><line x1="182.8" y1="535.30" x2="182.8" y2="109.40" stroke="#ddd" stroke-dasharray="3,2"></line><line x1="272.5" y1="535.30" x2="272.5" y2="109.40" stroke="#ddd" stroke-dasharray="3,2"></line><line x1="362.2" y1="535.30" x2="362.2" y2="109.40" stroke="#ddd" stroke-dasharray="3,2"></line><line x1="451.9" y1="535.30" x2="451.9" y2="109.40" stroke="#ddd" stroke-dasharray="3,2"></line><line x1="541.6" y1="535.30" x2="541.6" y2="109.40" stroke="#ddd" stroke-dasharray="3,2"></line></g></g><g clip-path="url(#boundsClip-1)"><g class="HeightedLegend clickable"><g class="legendMark"><rect x="569.584" y="102.2" width="265.41600000000005" height="14.4" fill="#fff" opacity="0"></rect><rect x="569.584" y="108.15" width="10" height="2.5" fill="#34983f"></rect><text font-size="14.40" x="584.6" y="113.7" fill="#333"><tspan x="584.584" y="113.72000000000001">Number of people living with HIV (tens)</tspan></text></g><g class="legendMark"><rect x="569.584" y="309.7" width="190.824" height="14.4" fill="#fff" opacity="0"></rect><rect x="569.584" y="315.65" width="10" height="2.5" fill="#ca2628"></rect><text font-size="14.40" x="584.6" y="321.2" fill="#333"><tspan x="584.584" y="321.21999999999997">New infections of HIV/AIDS</tspan></text></g><g class="legendMark"><rect x="569.584" y="407" width="159.43200000000002" height="14.4" fill="#fff" opacity="0"></rect><rect x="569.584" y="412.95" width="10" height="2.5" fill="#3360a9"></rect><text font-size="14.40" x="584.6" y="418.5" fill="#333"><tspan x="584.584" y="418.52">Deaths from HIV/AIDS</tspan></text></g></g><g class="Lines"><rect x="93" y="109" width="467" height="426" fill="rgba(255,255,255,0)" opacity="0"></rect><g class="key-World_0"><path stroke="#3360a9" stroke-linecap="round" d="M93 501L111 491L129 480L147 467L165 452L183 437L201 423L219 410L237 394L255 377L273 361L290 347L308 334L326 323L344 315L362 312L380 312L398 317L416 324L434 334L452 344L470 356L488 367L506 380L524 391L542 403L560 414" fill="none" stroke-width="1.5"></path><g fill="#3360a9"><circle cx="93" cy="501" r="2"></circle><circle cx="111" cy="491" r="2"></circle><circle cx="129" cy="480" r="2"></circle><circle cx="147" cy="467" r="2"></circle><circle cx="165" cy="452" r="2"></circle><circle cx="183" cy="437" r="2"></circle><circle cx="201" cy="423" r="2"></circle><circle cx="219" cy="410" r="2"></circle><circle cx="237" cy="394" r="2"></circle><circle cx="255" cy="377" r="2"></circle><circle cx="273" cy="361" r="2"></circle><circle cx="290" cy="347" r="2"></circle><circle cx="308" cy="334" r="2"></circle><circle cx="326" cy="323" r="2"></circle><circle cx="344" cy="315" r="2"></circle><circle cx="362" cy="312" r="2"></circle><circle cx="380" cy="312" r="2"></circle><circle cx="398" cy="317" r="2"></circle><circle cx="416" cy="324" r="2"></circle><circle cx="434" cy="334" r="2"></circle><circle cx="452" cy="344" r="2"></circle><circle cx="470" cy="356" r="2"></circle><circle cx="488" cy="367" r="2"></circle><circle cx="506" cy="380" r="2"></circle><circle cx="524" cy="391" r="2"></circle><circle cx="542" cy="403" r="2"></circle><circle cx="560" cy="414" r="2"></circle></g></g><g class="key-World_1"><path stroke="#ca2628" stroke-linecap="round" d="M93 307L111 301L129 288L147 265L165 230L183 175L201 184L219 187L237 186L255 181L273 169L290 195L308 216L326 232L344 245L362 253L380 258L398 262L416 264L434 265L452 263L470 277L488 288L506 298L524 305L542 312L560 317" fill="none" stroke-width="1.5"></path><g fill="#ca2628"><circle cx="93" cy="307" r="2"></circle><circle cx="111" cy="301" r="2"></circle><circle cx="129" cy="288" r="2"></circle><circle cx="147" cy="265" r="2"></circle><circle cx="165" cy="230" r="2"></circle><circle cx="183" cy="175" r="2"></circle><circle cx="201" cy="184" r="2"></circle><circle cx="219" cy="187" r="2"></circle><circle cx="237" cy="186" r="2"></circle><circle cx="255" cy="181" r="2"></circle><circle cx="273" cy="169" r="2"></circle><circle cx="290" cy="195" r="2"></circle><circle cx="308" cy="216" r="2"></circle><circle cx="326" cy="232" r="2"></circle><circle cx="344" cy="245" r="2"></circle><circle cx="362" cy="253" r="2"></circle><circle cx="380" cy="258" r="2"></circle><circle cx="398" cy="262" r="2"></circle><circle cx="416" cy="264" r="2"></circle><circle cx="434" cy="265" r="2"></circle><circle cx="452" cy="263" r="2"></circle><circle cx="470" cy="277" r="2"></circle><circle cx="488" cy="288" r="2"></circle><circle cx="506" cy="298" r="2"></circle><circle cx="524" cy="305" r="2"></circle><circle cx="542" cy="312" r="2"></circle><circle cx="560" cy="317" r="2"></circle></g></g><g class="key-World_2"><path stroke="#34983f" stroke-linecap="round" d="M93 440L111 428L129 412L147 392L165 364L183 323L201 314L219 301L237 284L255 262L273 213L290 211L308 207L326 201L344 192L362 169L380 178L398 182L416 182L434 175L452 151L470 161L488 164L506 161L524 152L542 136L560 109" fill="none" stroke-width="1.5"></path><g fill="#34983f"><circle cx="93" cy="440" r="2"></circle><circle cx="111" cy="428" r="2"></circle><circle cx="129" cy="412" r="2"></circle><circle cx="147" cy="392" r="2"></circle><circle cx="165" cy="364" r="2"></circle><circle cx="183" cy="323" r="2"></circle><circle cx="201" cy="314" r="2"></circle><circle cx="219" cy="301" r="2"></circle><circle cx="237" cy="284" r="2"></circle><circle cx="255" cy="262" r="2"></circle><circle cx="273" cy="213" r="2"></circle><circle cx="290" cy="211" r="2"></circle><circle cx="308" cy="207" r="2"></circle><circle cx="326" cy="201" r="2"></circle><circle cx="344" cy="192" r="2"></circle><circle cx="362" cy="169" r="2"></circle><circle cx="380" cy="178" r="2"></circle><circle cx="398" cy="182" r="2"></circle><circle cx="416" cy="182" r="2"></circle><circle cx="434" cy="175" r="2"></circle><circle cx="452" cy="151" r="2"></circle><circle cx="470" cy="161" r="2"></circle><circle cx="488" cy="164" r="2"></circle><circle cx="506" cy="161" r="2"></circle><circle cx="524" cy="152" r="2"></circle><circle cx="542" cy="136" r="2"></circle><circle cx="560" cy="109" r="2"></circle></g></g></g></g></g><g style="fill: #777;" class="SourcesFooter"><g style="fill: #777;" class="clickable"><text font-size="12.60" x="15.0" y="581.6"><tspan x="15" y="581.58">Source: IHME, Global Burden of Disease</tspan></text></g><text font-size="12.60" x="649.0" y="581.6"><tspan x="649.024" y="581.58"><a target='_blank' style='fill: #777;' href='https://ourworldindata.org'>OurWorldInData.org</a> • <a style="fill: #777;" href="http://creativecommons.org/licenses/by-sa/4.0/deed.en_US" target="_blank">CC BY-SA</a></tspan></text></g></g></svg>
